X: 53
T: JIG: Lounge Bar
C: C: Annlaug Børsheim; S: Annlaug Børsheim & Rannveig Djönne
C: Set Leaders: Sophie, Anton
Z: [Unedited]; Tom L at The Session
N: https://thesession.org/members/26966/sets/92009
R: Jig
M: 6/8
L: 1/8
Q: 3/8=116
K: Dmaj
A,|:B,DF E2D-|DFA d2c|BGB AFD|EGF E2D|
B,DF E2D-|DFA d2c|BGB AFD|1 E2D D2A,:|2 E2D DFA||
|:d3 dcA|F3 FEF|GBd dcA|E3 EDE|
F3 FED|B,3 B,A,B,|CDE EFE|1 D3 DFA:|2 D3 D2c||
|:dBd c2B-|Bdf e2c|dcB AdB|AFD E2c|
dBd c2B-|Bdf e2c|dcB AFD|1 E2D D2 c:|2 E2D DFA||
|:d3 dcA|F3 FEF|GBd dcA|E3 EDE|
F3 FED|B,3 B,A,B,|CDE EFE|1 D3 DFA:|2 D6||

